X: 1716
T: Anything For John Joe
R: reel
M: 4/4
K: Dmajor
F2AF G2BG|F2AF EFDE|F2AF G2BG|ABcA d4|
F2AF G2BG|F2AF EFDE|F2AF G2BG|ABcA d3z|
f2~f2 e2de|faaf e2de|f2~f2 e2dB|ABcA d3e|
f2~f2 e2de|faaf e2.d2|efge a3z|ABcA d4||

